X: 3
T:Out On the Ocean    (j-73)
R:Jig
M:6/8
K:A 
"A"E2c cBA| cec "A/C#"BcB| "D"AFE "Bm"A2B| "E7"cec BAF|
"A"E2c cBA| cec "A/C#"BcB| "D"AFE "Bm"A2B|1 "E7"cAG "A"A2F:|                                          [2 "E7"cAG "A"Ace|]
"F#m"f3 fec| "D"fgf fec| "C#m"efe ecB| "E7sus4"e2e ecB|
"A"A2B "A/C#"c2e| "D"faf "D#dim"ecB| "E7"AFE A2B| cAG "C#7/F"Ace|
"F#m"f3 fec| "D"fgf fec| "C#m"efe efg| "E7"agf ecB|
"A"A2B "A/C#"c2e| "D"faf "A/C#"ecB| "D"AFE "Bm"A2B| "E7"cAG "A"A3|]
%%text 07/29/05 

#include "RightHeader.h"
%%scale .7
% ---------- set 69 ----------
% Scotty O'Neil (D)/Farewell to Whiskey (G)/Road to Boston (D)
%%text Set 69
%%vskip -1cm
